X:1
T:East Tennessee Blues
C:arr. after Al Lester
M:2/4
L:1/16
Q:1/4=126
R:breakdown in the key of C
K:C
% A part (verified from photo)
ef^f |"C" gage gage | gagd edcA |"F" cdcA cdcA | cdcG AGFD |\
"C" EGAB cAcd | edef gage |"D" d^cde ^fdfa |"G" g8 |
% B part (OMR draft -- verify by ear)
"C" cdef gfed | cdcA GAGE |"F" FAcf agfe |"C" gfed cBcA |\
"D" d^cde fefg |"G" agfe dBGB |"C" cega gece |"C" c8 |
